public/icons/img/privacy-and-documents.svg

<?xml version="1.0" encoding="UTF-8"?>
<svg width="50px" height="60px" viewBox="0 0 50 60" version="1.1" xmlns="http://www.w3.org/2000/svg" xmlns:xlink="http://www.w3.org/1999/xlink">
    <title>UI Elements/Icon / Account Settings / Privacy and Documents</title>
    <defs>
        <path d="M21.3742435,6.85714286 C21.3742435,6.85714286 19.1835038,8.46526629 16.6904105,9.55758133 C14.291831,10.6081695 12.375,10.7083597 12.375,10.7083597 L12.375,18.7113897 C12.375,20.9117911 12.7168184,23.3125223 15.5064654,26.0139767 C18.2959863,28.7144152 21.3744957,29.7142857 21.3744957,29.7142857 C21.3744957,29.7142857 24.4527529,28.7142879 27.2425259,26.0129608 C30.0330555,23.3125223 30.375,20.9117657 30.375,18.7113897 L30.375,10.7083597 C30.375,10.7083597 28.4580933,10.6081619 26.0585808,9.55758133 C23.5649328,8.46531708 21.3742435,6.85714286 21.3742435,6.85714286 Z" id="path-1"></path>
        <filter x="-5.6%" y="-4.4%" width="111.1%" height="117.5%" filterUnits="objectBoundingBox" id="filter-2">
            <feOffset dx="0" dy="2" in="SourceAlpha" result="shadowOffsetOuter1"></feOffset>
            <feColorMatrix values="0 0 0 0 0   0 0 0 0 0   0 0 0 0 0  0 0 0 0.1 0" type="matrix" in="shadowOffsetOuter1"></feColorMatrix>
        </filter>
    </defs>
    <g id="Iconography-&amp;-Interface-Details" stroke="none" stroke-width="1" fill="none" fill-rule="evenodd">
        <g id="Icons" transform="translate(-626.000000, -370.000000)">
            <g id="Group" transform="translate(615.000000, 368.000000)">
                <g id="Group" transform="translate(11.250000, 2.285714)">
                    <g id="Privacy-and-Legal" fill="#004B2E">
                        <path d="M1,0 L37.25,0 C37.8022847,-4.02567223e-15 38.25,0.44771525 38.25,1 L38.25,53.8571429 C38.25,54.4094276 37.8022847,54.8571429 37.25,54.8571429 L1,54.8571429 C0.44771525,54.8571429 6.76353751e-17,54.4094276 0,53.8571429 L0,1 C-6.76353751e-17,0.44771525 0.44771525,1.01453063e-16 1,0 Z" id="Rectangle"></path>
                    </g>
                    <g id="Bill-Pay-Icon" transform="translate(9.000000, 4.571429)">
                        <path d="M3,0 L29.25,0 L29.25,0 L29.25,49.2857143 C29.25,49.837999 28.8022847,50.2857143 28.25,50.2857143 L2.55795385e-13,50.2857143 L2.55795385e-13,50.2857143 L2.55795385e-13,3 C2.5514839e-13,1.34314575 1.34314575,7.48448398e-16 3,0 Z" id="Rectangle" fill-opacity="0.1" fill="#000000"></path>
                        <path d="M3.25,2.28571429 L33.75,2.28571429 L33.75,2.28571429 L40.5,10.2913135 L40.491244,53.8571429 C40.490932,54.4093491 40.0432492,54.8569419 39.491043,54.8571429 L3.25,54.8571429 C2.69771525,54.8571429 2.25,54.4094276 2.25,53.8571429 L2.25,3.28571429 C2.25,2.73342954 2.69771525,2.28571429 3.25,2.28571429 Z" id="Rectangle" fill="#00B16E"></path>
                        <g id="Fill-1">
                            <use fill="black" fill-opacity="1" filter="url(#filter-2)" xlink:href="#path-1"></use>
                            <use fill="#FFFFFF" fill-rule="evenodd" xlink:href="#path-1"></use>
                        </g>
                        <path d="M7.75,34.2857143 L35,34.2857143 C35.5522847,34.2857143 36,34.7334295 36,35.2857143 L36,35.5714286 C36,36.1237133 35.5522847,36.5714286 35,36.5714286 L7.75,36.5714286 C7.19771525,36.5714286 6.75,36.1237133 6.75,35.5714286 L6.75,35.2857143 C6.75,34.7334295 7.19771525,34.2857143 7.75,34.2857143 Z" id="Rectangle-Copy-41" fill="#FFFFFF"></path>
                        <path d="M7.75,41.1428571 L35,41.1428571 C35.5522847,41.1428571 36,41.5905724 36,42.1428571 L36,42.4285714 C36,42.9808562 35.5522847,43.4285714 35,43.4285714 L7.75,43.4285714 C7.19771525,43.4285714 6.75,42.9808562 6.75,42.4285714 L6.75,42.1428571 C6.75,41.5905724 7.19771525,41.1428571 7.75,41.1428571 Z" id="Rectangle-Copy-41" fill="#FFFFFF"></path>
                        <path d="M7.75,48 L35,48 C35.5522847,48 36,48.4477153 36,49 L36,49.2857143 C36,49.837999 35.5522847,50.2857143 35,50.2857143 L7.75,50.2857143 C7.19771525,50.2857143 6.75,49.837999 6.75,49.2857143 L6.75,49 C6.75,48.4477153 7.19771525,48 7.75,48 Z" id="Rectangle-Copy-41" fill="#FFFFFF"></path>
                        <path d="M33.75,2.28571429 L40.5,10.2913135 L35.7312191,10.2465304 C34.6340254,10.2362268 33.75,9.34386073 33.75,8.24661863 L33.75,2.28571429 L33.75,2.28571429 Z" id="Path" fill="#007E4E"></path>
                    </g>
                </g>
            </g>
        </g>
    </g>
</svg>

<svg xmlns="http://www.w3.org/2000/svg" xmlns:xlink="http://www.w3.org/1999/xlink" width="50" height="60"
     xmlns:v="https://vecta.io/nano">
    <defs>
        <path d="M21.374 6.857s-2.19 1.608-4.684 2.7c-2.4 1.05-4.315 1.15-4.315 1.15v8.003c0 2.2.342 4.6 3.13 7.303s5.868 3.7 5.868 3.7 3.078-1 5.868-3.7 3.132-5.1 3.132-7.302v-8.003s-1.917-.1-4.316-1.15c-2.494-1.092-4.684-2.7-4.684-2.7z"
              id="A"/>
        <filter x="-5.6%" y="-4.4%" width="111.1%" height="117.5%" id="B">
            <feOffset dy="2" in="SourceAlpha"/>
            <feColorMatrix values="0 0 0 0 0 0 0 0 0 0 0 0 0 0 0 0 0 0 0.1 0"/>
        </filter>
        <path id="C" d="M7.75 34.286H35a1 1 0 0 1 1 1v.286a1 1 0 0 1-1 1H7.75a1 1 0 0 1-1-1v-.286a1 1 0 0 1 1-1z"/>
    </defs>
    <g transform="translate(.25 .286)" fill="none" fill-rule="evenodd">
        <path d="M1 0h36.25a1 1 0 0 1 1 1v52.857a1 1 0 0 1-1 1H1a1 1 0 0 1-1-1V1a1 1 0 0 1 1-1z" fill="#004b2e"/>
        <g transform="translate(9 4.571)">
            <path d="M3 0h26.25v49.286a1 1 0 0 1-1 1H0V3a3 3 0 0 1 3-3z" fill-opacity=".1" fill="#000"/>
            <path d="M3.25 2.286h30.5l6.75 8.006-.01 43.566a1 1 0 0 1-1 1H3.25a1 1 0 0 1-1-1V3.286a1 1 0 0 1 1-1z"
                  fill="#00b16e"/>
            <use fill="#000" filter="url(#B)" xlink:href="#A"/>
            <g fill="#fff">
                <use xlink:href="#A"/>
                <use xlink:href="#C"/>
                <use xlink:href="#C" y="6.857"/>
                <path d="M7.75 48H35a1 1 0 0 1 1 1v.286a1 1 0 0 1-1 1H7.75a1 1 0 0 1-1-1V49a1 1 0 0 1 1-1z"/>
            </g>
            <path d="M33.75 2.286l6.75 8.006-4.77-.045a2 2 0 0 1-1.981-2v-5.96z" fill="#007e4e"/>
        </g>
    </g>
</svg>
